svgs/sharp-light/square-2.svg

<svg xmlns="http://www.w3.org/2000/svg" viewBox="0 0 448 512"><!--! Font Awesome Pro 6.6.0 by @fontawesome - https://fontawesome.com License - https://fontawesome.com/license (Commercial License) Copyright 2024 Fonticons, Inc. --><path d="M32 64l0 384 384 0 0-384L32 64zM0 32l32 0 384 0 32 0 0 32 0 384 0 32-32 0L32 480 0 480l0-32L0 64 0 32zM218.7 160c-13.8 0-27 5.5-36.7 15.2l-23.4 23.4L136 176l23.4-23.4c15.7-15.7 37.1-24.6 59.3-24.6l4.9 0c43.6 0 79 35.4 79 79L301 223c-2.9 14.2-9.8 27.4-19.8 38.2L195.7 352l123 0 0 32-176 0 0-22.3L257.8 239.2c8.2-8.7 12.8-20.2 12.8-32.2c0-26-21-47-47-47l-4.9 0z"/></svg>

<svg xmlns="http://www.w3.org/2000/svg" viewBox="0 0 448 512"><!--! Font Awesome Pro 6.4.2 by @fontawesome - https://fontawesome.com License - https://fontawesome.com/license (Commercial License) Copyright 2023 Fonticons, Inc. --><path d="M32 64V448H416V64H32zM0 32H32 416h32V64 448v32H416 32 0V448 64 32zM218.7 160c-13.8 0-27 5.5-36.7 15.2l-23.4 23.4L136 176l23.4-23.4c15.7-15.7 37.1-24.6 59.3-24.6h4.9c43.6 0 79 35.4 79 79L301 223c-2.9 14.2-9.8 27.4-19.8 38.2L195.7 352h123v32h-176V361.7L257.8 239.2c8.2-8.7 12.8-20.2 12.8-32.2c0-26-21-47-47-47h-4.9z"/></svg>
